symbols/web/emergency_share/materialsymbolsrounded/emergency_share_wght100grad200fill1_40px.svg

<svg xmlns="http://www.w3.org/2000/svg" height="40" width="40"><path d="M18.875 36.583q-3.5-3.333-5.292-6.187-1.791-2.854-1.791-5.146 0-3.5 2.354-5.979T20 16.792q3.417 0 5.792 2.479t2.375 5.979q0 2.5-1.855 5.25-1.854 2.75-5.229 6.042-.5.458-1.125.458t-1.083-.417ZM20 26.917q.75 0 1.333-.563.584-.562.584-1.354t-.584-1.375q-.583-.583-1.333-.583-.833 0-1.396.583-.562.583-.562 1.375t.562 1.354q.563.563 1.396.563ZM20 10q-1.417 0-2.729.438-1.313.437-2.479 1.229-.334.25-.688.25-.354 0-.646-.292-.25-.25-.187-.604.062-.354.354-.604 1.417-1 3.063-1.563 1.645-.562 3.312-.562 1.667 0 3.312.562 1.646.563 3.063 1.563.292.25.354.604.063.354-.187.604-.292.292-.646.292-.354 0-.646-.292-1.208-.75-2.521-1.187Q21.417 10 20 10Zm0-6.667q-2.708 0-5.208.875t-4.667 2.625q-.333.292-.729.334-.396.041-.688-.292-.291-.292-.208-.625.083-.333.375-.625 2.417-1.917 5.271-2.958Q17 1.625 20 1.625t5.854 1.042q2.854 1.041 5.229 2.958.292.292.375.667.084.375-.208.666-.292.292-.667.25-.375-.041-.666-.333-2.125-1.75-4.625-2.646-2.5-.896-5.292-.896Z"/></svg>

<svg xmlns="http://www.w3.org/2000/svg" height="40" width="40"><path d="M18.875 36.583Q15.375 33.25 13.583 30.396Q11.792 27.542 11.792 25.25Q11.792 21.75 14.146 19.271Q16.5 16.792 20 16.792Q23.417 16.792 25.792 19.271Q28.167 21.75 28.167 25.25Q28.167 27.75 26.312 30.5Q24.458 33.25 21.083 36.542Q20.583 37 19.958 37Q19.333 37 18.875 36.583ZM20 26.917Q20.75 26.917 21.333 26.354Q21.917 25.792 21.917 25Q21.917 24.208 21.333 23.625Q20.75 23.042 20 23.042Q19.167 23.042 18.604 23.625Q18.042 24.208 18.042 25Q18.042 25.792 18.604 26.354Q19.167 26.917 20 26.917ZM20 10Q18.583 10 17.271 10.438Q15.958 10.875 14.792 11.667Q14.458 11.917 14.104 11.917Q13.75 11.917 13.458 11.625Q13.208 11.375 13.271 11.021Q13.333 10.667 13.625 10.417Q15.042 9.417 16.688 8.854Q18.333 8.292 20 8.292Q21.667 8.292 23.312 8.854Q24.958 9.417 26.375 10.417Q26.667 10.667 26.729 11.021Q26.792 11.375 26.542 11.625Q26.25 11.917 25.896 11.917Q25.542 11.917 25.25 11.625Q24.042 10.875 22.729 10.438Q21.417 10 20 10ZM20 3.333Q17.292 3.333 14.792 4.208Q12.292 5.083 10.125 6.833Q9.792 7.125 9.396 7.167Q9 7.208 8.708 6.875Q8.417 6.583 8.5 6.25Q8.583 5.917 8.875 5.625Q11.292 3.708 14.146 2.667Q17 1.625 20 1.625Q23 1.625 25.854 2.667Q28.708 3.708 31.083 5.625Q31.375 5.917 31.458 6.292Q31.542 6.667 31.25 6.958Q30.958 7.25 30.583 7.208Q30.208 7.167 29.917 6.875Q27.792 5.125 25.292 4.229Q22.792 3.333 20 3.333Z"/></svg>
